!!!OTL: Die Zeiten, Brueder, sind nicht mehr et.
!!!OTL-incipit: DIE ZEITEN BRUEDER SIND NICHT MEHR
!!!ARE: Europa, Mitteleuropa, Deutschland
!!!SCT: F0725
!!!TXL: @@DE
!!!YEM: Copyright 1995, estate of Helmut Schaffrath.
**kern	**text
*ICvox	*
*clefG2	*
*M3/4	*
*k[f#c#]	*
*D:	*
!LO:TX:a:t=Mäßig und kräftig.	!
!LO:TX:a:t=P:only the highest voice encoded:problem	!
{4a	1._Die
=1	=1
(4dd/	Ʒei-
4cc#/)	.
4b/	-ten,
=2	=2
(>4a	Brü-
4g)	.
4f#	-der,
=3	=3
(>4e	ſind
4f#)	.
4g	nicht
=4	=4
4f#	mehr,
4r}	.
{4a	wo
=5	=5
(>4b/	Treu
4a)	.
4b/	und
=6	=6
(>4cc#/	Glau-
4b/)	.
4cc#/	-ben
=7	=7
(>2dd/	gal-
4ff#/)	.
=8	=8
4dd/	-ten;
4r}	.
{4a	Jetʒt
=9	=9
(4dd/	ſind
4cc#/)	.
4b/	die
=10	=10
(>4a	Wor-
4g)	.
4f#	-te
=11	=11
(4e	glatt
4f#)	.
4g	und
=12	=12
4f#	leer,
4r}	.
{4a	ſo
=13	=13
(>4b/	mach-
4a)	.
4b/	-ten's
=14	=14
(>4cc#/	nicht
4b/)	.
4cc#/	die
=15	=15
(>2dd/	Al-
4ff#/)	.
=16	=16
4dd/	-ten.
4r}	.
{4a	Wie
=17	=17
(>4a	mancher
4dd/)	.
4ff#/	.
=18	=18
(>4ee/	ſchwört
4cc#/)	.
4a	jetʒt
=19	=19
(>4dd/	Stein
4b/)	.
4g#	und
=20	=20
4a	Bein,
4r}	.
{4a	und
=21	=21
(>4a	nie
4dd/)	ſtimmt
4ff#/	.
=22	=22
(>4ee/	ſei-
4cc#/)	.
4a	-ne
=23	=23
(>4dd/	That
4b/)	.
4g#	mit
=24	=24
4a	ein.
4r}	.
!LO:TX:a:t=Das ʒweite Mal Alle.	!
{4a	Wir
=25	=25
4f#	wollen,
4d	.
4a	wir
=26	=26
2dd/	wol-
4ff#/	-len
=27	=27
(>4ee/	red-
4dd/)	.
4cc#/	-lich
=28	=28
4dd/	ſein!
4r;}	.
{4a	Wir
=29	=29
4f#	wollen,
4d	.
4a	wir
=30	=30
2dd/	wol-
4ff#/	-len
=31	=31
(>4ee/	red-
4dd/)	.
4cc#/	-lich
=32	=32
4dd/	ſein!
4r;}	.
==	==
!!!AGN: Geselligkeits -, Moral - Lied
!!!ONB: ESAC (Essen Associative Code) Database: FINK
!!!AMT: simple triple
!!!AIN: vox
!!!EED: Helmut Schaffrath
!!!EEV: 1.0
!!!RDF**kern: > = above
!!!GTL: Liedertafel- und Gesellschaftslieder
!!!source: Musikalischer Hausschatz der Deutschen. Eine Sammlung von über 1000 Liedern und Gesängen mit Singstimmen und Klavierbegleitung. Leipzig, Litterarisches Verlags-Haus.
!!!page: 495
!!!URL-scan: https://www.digitale-sammlungen.de/en/view/bsb11144622?page=446
!!!ENC: Anna Maria Matuszewska
!!!EEV: 2024/08/05
*-	*-
